X:2   
T:Au point du jour
C:G. Chabenat
I:Airs nouveaux pour danses anciennes
Q:3/4=78
M:3/8 
K:D
D4 E2 |A4 G2 |A4 B2 |=c2 d4 |
D4 E2 |A4 G2 |=c2 B2 G2 |E6 :|
d3 =c B2 |A3 G F2 |E3 D E2 |A2 D4 |
d2 =c2 B2 |=c2 B2 A2 |G2 A2 B2 |A6 :|
